X:129
T:Yellow Cow, The
T:Is Trua gan Peata 'n Mhaoir agam
T:Peata Beag is a Mh\'athair
T:Mother and Child Reel, The
R:reel
H:The words are from CRE II, 259 (Micho Russell)
H:See also #795
D:Arty McGlynn & Nollaig Casey: Lead the Knave
Z:id:hn-reel-129
M:C|
K:D
A2GE FD~D2|EFGD EFGE|A2GE FD~D2|EFGE A4:|
|:~A3B cdeg|fdec dcAB|cAAB cdeg|1 fdec d2ec:|2 fdec d4||
W:Is trua gan peata 'n mhaoir agam (3 times)
W:'S na caoire beaga b\'ana.
W:  Is \'o goirim, goirim th\'u,
W:  Is gr\'a mo chro\'i gan cheilg th\'u,
W:  Is \'o goirim, goirim th\'u,
W:  Is t\'u peata beag do mh\'athar.
W:I wish I had a bainbh\'in,
W:a bainbh\'in, a bainbh\'in,
W:I wish I had a bainbh\'in,
W:that would drink the pratie water.

